X:144
%%etbk:tnset id:51,pos:1,rep:3x,ant:
%%etbk:wsite http://www.thesession.org/tunes/display/1339
%%etbk:skill ?
%%etbk:pldat 2013-05-15T15:49,2013-05-02T18:12
T: Mullinavat
Z: Piano Box Version by Martin Fleischmann
H: Created 2013-02-19 /  Last Modified 2013-09-03
M: 4/4
L: 1/8
R: reel
K: Edor
f|: !4!gee!1!d e!1!d!3!BA | !1!G!3!BA!1!G !2!E2!2!E!3!F | !4!G!1!EEE !3!G!4!A!2!Bd | !5!e!2!BBA B!4!d!2!ef |
!4!g2fg e!1!d!3!BA | !1!G!3!BA!1!G !2!E2!2!E!3!F  | !4!GEEE !3!G2!3!G!4!A | !2!Be!5!ed !5!!2!e3f :|
|:!4!g!2!e!1!Be !3!gabg | !4!a!2!f!1!d!1!e !2!fgaf | !3!g!1!BBB !3!gbag | !4!agfg !1!e2e!3!f 
|1 !4!g2BB gbag | afde fgaf | !5!bg!4!a!2!f !4!gfe!1!d | !1!B!4!gfg !2!e3f :|
|2 !4!g2!3!gf gbag | !4!afde fgaf | bgaf gfed | Bgfg e3f||
